packages/astro-components-stencil/src/icons/settings-input-antenna.svg

<svg width="24" height="24" viewBox="0 0 24 24" fill="none" xmlns="http://www.w3.org/2000/svg">
<path fill-rule="evenodd" clip-rule="evenodd" d="M1.04999 10.9C1.60999 5.34 6.29999 1 12 1C17.7 1 22.39 5.34 22.95 10.9C23.01 11.49 22.54 12 21.95 12C21.44 12 21.01 11.62 20.96 11.12C20.52 6.56 16.67 3 12 3C7.32999 3 3.47999 6.56 3.03999 11.12C2.98999 11.62 2.55999 12 2.04999 12C1.45999 12 0.999987 11.49 1.04999 10.9ZM12 5C8.51999 5 5.62999 7.54 5.08999 10.87C4.98999 11.46 5.47999 12 6.08999 12C6.57999 12 6.98999 11.64 7.06999 11.15C7.47999 8.79 9.52999 7 12 7C14.47 7 16.52 8.79 16.93 11.15C17.01 11.64 17.42 12 17.91 12C18.52 12 19 11.46 18.9 10.87C18.37 7.54 15.48 5 12 5ZM13 14.29C14.07 13.81 14.76 12.63 14.41 11.3C14.19 10.49 13.54 9.83 12.73 9.6C11.04 9.12 9.49999 10.38 9.49999 12C9.49999 13.02 10.12 13.9 11 14.29V17.59L8.28999 20.29C7.89999 20.68 7.89999 21.31 8.28999 21.7C8.67999 22.09 9.30999 22.09 9.69999 21.7L12 19.4L14.3 21.7C14.69 22.09 15.32 22.09 15.71 21.7C16.1 21.31 16.1 20.68 15.71 20.29L13 17.59V14.29Z" fill="black"/>
</svg>

<svg xmlns="http://www.w3.org/2000/svg" viewBox="0 0 24 24"><g xmlns="http://www.w3.org/2000/svg" id="settings-input-antenna" fill-rule="nonzero">
            <path d="M12 5c-3.48 0-6.37 2.54-6.91 5.87-.1.59.39 1.13 1 1.13.49 0 .9-.36.98-.85A5.007 5.007 0 0112 7c2.47 0 4.52 1.79 4.93 4.15.08.49.49.85.98.85.61 0 1.09-.54.99-1.13A6.984 6.984 0 0012 5zm1 9.29a2.518 2.518 0 001.41-2.99c-.22-.81-.87-1.47-1.68-1.7-1.69-.48-3.23.78-3.23 2.4 0 1.02.62 1.9 1.5 2.29v3.3l-2.71 2.7A.996.996 0 109.7 21.7l2.3-2.3 2.3 2.3a.996.996 0 101.41-1.41L13 17.59v-3.3zM12 1C6.3 1 1.61 5.34 1.05 10.9c-.05.59.41 1.1 1 1.1.51 0 .94-.38.99-.88C3.48 6.56 7.33 3 12 3c4.67 0 8.52 3.56 8.96 8.12.05.5.48.88.99.88.59 0 1.06-.51 1-1.1C22.39 5.34 17.7 1 12 1z"/>
        </g></svg>
